X:78
T: SO GEHT ES IN SCHNUETZELPUTZ HAEUSEL
N: E1098
O: Europa, Mitteleuropa, Deutschland
N: modulierend
R: Maerchen - Lied, Luegen - Maerchen
M: 6/8
L: 1/8
K: D
A | AGFFEF | G2FE2
A | AGFFEF | G2FE2
A | AFDBGE | F2ED2
E | EF^GABc | Bcdc2
E | EF^GABc | Bcdc2
e | ecAfdB | F3^G3 | A3z2

